!!!ONB: MCCC : IFS0820_03 : Extracted Monophonic Melody
!!!COM: Schubert, Franz
!!!OPR: Violin Sonata (No.1) in D major
!!!OMV: 3
!!!SCT: D.384 (published as Op.posth.137 No.1)
!!!ODT: 1816///
**kern
*staff1
=1
*clefG2
*k[f#c#]
*D:
*M6/8
4.ff#
32ff#
16.ee
8dd
8ee
=2
4dd
8ff#
4.a
=3
8b
8cc#
8dd
8ee
8ff#
8gg
=4
4gg#
8bb
4.aa
=5
4.ff#
32ff#
16.ee
8dd
8ee
=6
4dd
8ff#
4.b
=7
8ee
8dd
8cc#
32cc#
16.b
8a
8b
=8
8a
8b
8a
8g
8f#
8e
=9
8a
8f#
8d
8g
8e
8c#
=10
8d
8A
8d
8f#
8d
8A
=11
8B
8d
8g
8B
8d
8g
=12
8B
8d
8f
8A
8d
8f#
=13
8a
8f#
8d
8g
8e
8c#
=14
8f#
8d
8B
8G#
8B
8e
=15
8A
8c#
8e
8G#
8d
8e
=16
8A
8c#
8e
8a
8cc#
8ee
=17
4aa
8aa
4ccc
8bb
=18
4.aa
4.gg#
=19
4gg
8gg
4bb
8aa
=20
4.gg
4.ff#
=21
4ee
8ee
4gg
8cc#
=22
4.aa[
8aa]
8gg
8ff#
=23
4ee
8ee
4gg
8cc#
=24
4.aa[
8aa]
8gg
8ff#
=25
4ee
8ee
4ff#
8dd
=26
4.a
4.r
=27
4.ff#
32ff#
16.ee
8dd
8ee
=28
4dd
8ff#
4.a
=29
8b
8cc#
8dd
8ee
8ff#
8gg
=30
4gg#
8bb
4.aa
=31
4.ff#
32ff#
16.ee
8dd
8ee
=32
4.dd
8gg
8aa
8bb
=33
8aa
8gg
8ff#
8ee
8dd
8cc#
=34
4.dd
8ddd
8ccc#
8bb
=35
8aa
8gg
8ff#
8ee
8dd
8cc#
=36
8dd
8a
8g
8f#
8e
8d
=37
8d#
8f#
8a
8d#
8f#
8a
=38
8B
8d
8f
8B
8d
8f
=39
8c#
8e
8g
8c#
8e
8g
=40
8A
8c
8d#
8A
8c
8d#
=41
8B
8e
8g
8A#
8c#
8e
=42
8f#
8d
8A
8f#
8d
8A
=43
8B
8e
8g
8A#
8c#
8e
=44
8f#
8d
8A
8f#
8d
8A
=45
8B
8d
8e
8B
8d
8e
=46
8A
8c#
8e
8a
8e
8c#
=47
8a
8f#
8d
8g
8e
8c#
=48
8f#
8d
8A
8f#
8d
8A
=49
8B
8d
8g
8B
8d
8g
=50
8B
8d
8f
8A
8d
8f#
=51
8f#
8d
8B
8g
8e
8c#
=52
8f#
8d
8B
8B
8d
8g
=53
8A
8d
8f#
8c#
8e
8g
=54
8f#
8d
8A
8B
8d
8e
=55
8A
8d
8f#
8A
8e
8g
=56
4.f#
16dd
16ee
16ff#
16ee
16dd
16cc#
=57
16b
16cc#
16dd
16cc#
16b
16a
16g#
16a
16b
16a
16g#
16f#
=58
4.e
4.d#
=59
4.d
4.B
=60
4.A
8ee
8ff#
8ee
=61
4.dd#
8dd
8ee
8dd
=62
4.cc#
8cc
8dd
8cc
=63
8b
8cc
8b
8a
8b
8a
=64
4.g#
4.e
=65
4.f#
4.g#
=66
4.a
4.cc
=67
4.dd
4.dd#
=68
4.ee
8ff
8gg
8ff
=69
4.ee
4.bb[
=70
4.bb]
8ff
8gg
8ff
=71
4.ee
4.bb[
=72
4.bb]
8ee
8ff#
8gg#
=73
4.aa
8cc#
8a
8cc#
=74
8dd
8b
8dd#
8ee
8b
8dd
=75
4.cc#
8ee
8aa
8gg#
=76
8ff#
8bb
8aa
8gg#
8ccc#
8bb
=77
4.aa
4.r
=78
8c#
8f#
8e
4.d[
=79
8d]
8g#
8f#
4.e[
=80
8e]
8a
8g#
4.f#[
=81
8f#]
8b
8a
4g#
8dd
=82
8cc#
8a
8g#
8a
8f#
8e#
=83
8f#
8d
8c#
8d
8B
8A
=84
4.G#
4.ff#
=85
4.r
4ff#
8ff
=86
8ee
8aa
8cc#
8ff#
8dd
8b
=87
8ee
8cc#
8a
8dd
8b
8g#
=88
4.a
4.ff#
=89
4.r
4ff#
8ff
=90
4.ee
4.dd
=91
4cc#
8cc
4b
8ee
=92
4.a
8ee
8cc#
8b
=93
4.a#
8cc#
8ee
8gg
=94
4ff#
8bb
8dd
8b
8a
=95
4.g#
8b
8dd
8ff#
=96
4ee
8aa
8ee
8cc#
8b
=97
2.a[
=98
4.a]
8eee
8ccc#
8bb
=99
4.aa[
4aa]
8bb
=100
4ccc#
8ccc#
32ccc#
16.bb
8aa
8bb
=101
4.aa
4.r
=102
8e
8c#
8B
4.A#
=103
8B
8d
8f#
4.b
=104
8d
8B
8A
4.G#
=105
8A
8c#
8e
4.a
=106
4.r
8ee
8cc#
8b
=107
4.a
4.r
=108
4.r
8ee
8cc#
8b
=109
4.a
4.g#
=110
4.a
8ee
8cc#
8b
=111
4.a
8gg
8ee
8dd
=112
4.cc#
8bb
8gg
8ff#
=113
8ee
8ff#
8dd
8cc#
8dd
8b
=114
8a
8b
8cc#
8dd
8ee
8ff
=115
4.ff#
32ff#
16.ee
8dd
8ee
=116
4dd
8ff#
4.a
=117
8b
8cc#
8dd
8ee
8ff#
8gg
=118
4gg#
8bb
4.aa
=119
4.ff#
32ff#
16.ee
8dd
8ee
=120
4dd
8ff#
4.b
=121
8ee
8dd
8cc#
32cc#
16.b
8a
8b
=122
8a
8b
8a
8g
8f#
8e
=123
8d#
8f#
8a
8d#
8f#
8a
=124
8B
8d
8f
8B
8d
8f
=125
8c#
8e
8g
8c#
8e
8g
=126
8A
8c
8d#
8A
8c
8d#
=127
8B
8e
8g
8A#
8c#
8e
=128
8f#
8d
8A
8f#
8d
8A
=129
8B
8e
8g
8A#
8c#
8e
=130
8f#
8d
8A
8f#
8d
8A
=131
8B
8d
8e
8B
8d
8e
=132
4.c#
4.r
=133
4.ff#
32ff#
16.ee
8dd
8ee
=134
4dd
8ff#
4.a
=135
8b
8cc#
8dd
8ee
8ff#
8gg
=136
4gg#
8bb
4.aa
=137
4.ff#
32ff#
16.ee
8dd
8ee
=138
4.dd
8gg
8aa
8bb
=139
8aa
8gg
8ff#
8ee
8dd
8cc#
=140
4.dd
8ddd
8ccc#
8bb
=141
8aa
8gg
8ff#
8ee
8dd
8cc#
=142
4.dd
16dd
16ee
16ff#
16ee
16dd
16cc#
=143
16b
16cc#
16dd
16cc#
16b
16a
16g#
16a
16b
16a
16g#
16f#
=144
4.e
4.d#
=145
4.d
4.B
=146
4.A
8ee
8ff#
8ee
=147
4.dd#
8dd
8ee
8dd
=148
4.cc#
8cc
8dd
8cc
=149
8b
8cc
8b
8a
8b
8a
=150
4.g#
4.g
=151
4.A
4.B
=152
4.c
4.d#
=153
4.e#
4.f#
=154
4.g
8aa#
8ccc
8aa#
=155
4.aa
8gg#
8aa#
8gg#
=156
4.gg
8gg
8gg#
8gg
=157
8ff
8gg
8ff
8dd#
8ff
8dd#
=158
4.dd
4.d
=159
4.e
4.f#
=160
4.g
4.a#
=161
4.b#
4.cc#
=162
4.dd
8dd#
8ff
8dd#
=163
4.dd
4.aa[
=164
4.aa]
8dd#
8ff
8dd#
=165
4.dd
4.aa[
=166
4.aa]
8dd
8ee
8ff#
=167
4.gg
8b
8g
8b
=168
8cc
8a
8cc#
8dd
8a
8cc
=169
4.b
8dd
8gg
8ff#
=170
8ee
8aa
8gg
8ff#
8bb
8aa
=171
4.gg
4.r
=172
8B
8e
8d
4.c[
=173
8c]
8f#
8e
4.d[
=174
8d]
8g
8f#
4.e[
=175
8e]
8a
8g
4.f#
=176
8b
8g
8f#
8g
8e
8d#
=177
8e
8g
8f#
8g
8e
8d
=178
4.c#
4.bb
=179
4.r
4bb
8aa#
=180
8aa
8ddd
8ff#
8bb
8gg
8ee
=181
8aa
8ff#
8dd
8gg
8ee
8cc#
=182
4.dd
4.bb
=183
4.r
4bb
8aa#
=184
4.aa
4.gg
=185
4ff#
8ff
4ee
8aa
=186
4.dd
8aa
8ff#
8ee
=187
4.dd#
8ff#
8aa
8ccc
=188
4bb
8eee
8gg
8ee
8dd
=189
4.cc#
8ee
8gg
8bb
=190
4aa
8ddd
8a
8f#
8e
=191
2.d[
=192
4.d]
8aa
8ff#
8ee
=193
4.dd[
4dd]
8ee
=194
4ff#
8ff#
32ff#
16.ee
8dd
8ee
=195
4.dd
4.r
=196
8a
8f#
8e
4.d#
=197
8e
8g
8b
4.ee
=198
8g
8e
8d
4.c#
=199
8d
8f#
8a
4.dd
=200
4.r
8aa
8ff#
8ee
=201
4.dd
4.r
=202
4.r
8a
8f#
8e
=203
4.d
4.c#
=204
2.r
=205
4.ff#
32ff#
16.ee
8dd
8ee
=206
4dd
8ff#
4.a
=207
8b
8cc#
8dd
8ee
8ff#
8gg
=208
4gg#
8bb
4.aa
=209
4.ff#
32ff#
16.ee
8dd
8ee
=210
4dd
8ff#
4.b
=211
8ee
8dd
8cc#
32cc#
16.b
8a
8b
=212
8a
8b
8a
8g
8f#
8e
=213
8d#
8f#
8a
8d#
8f#
8a
=214
8B
8d
8f
8B
8d
8f
=215
8c#
8e
8g
8c#
8e
8g
=216
8A
8c
8d#
8A
8c
8d#
=217
8B
8e
8g
8A#
8c#
8e
=218
8f#
8d
8A
8f#
8d
8A
=219
8B
8e
8g
8A#
8c#
8e
=220
8A
8d
8f#
8A
8d
8f#
=221
8B
8d
8e
8B
8d
8e
=222
4.c#
4.r
=223
4.ff#
32ff#
16.ee
8dd
8ee
=224
4dd
8ff#
4.a
=225
8b
8cc#
8dd
8ee
8ff#
8gg
=226
4gg#
8bb
4.aa
=227
4.ff#
32ff#
16.ee
8dd
8ee
=228
4.dd
8gg
8aa
8bb
=229
8aa
8gg
8ff#
8ee
8dd
8cc#
=230
4.dd
8ddd
8ccc#
8bb
=231
8aa
8gg
8ff#
8ee
8dd
8cc#
=232
8dd
8a
8g
8f#
8e
8d
=233
8c
8d
8f#
8c
8d
8f#
=234
8B
8d
8g
8B
8d
8g
=235
8A
8e
8g
8A
8e
8g
=236
8A
8d
8f#
8A
8d
8f#
=237
4aa
8aa
32gg
16.ff#
8ee
8ff#
=238
4gg
8gg
4.bb
=239
4cc#
8cc#
8aa
8gg
8ee
=240
4.dd
8ee
8ff#
8ee
=241
8dd
8cc#
8dd
8ee
8ff#
8ee
=242
8dd
8aa
8ff#
8ee
8ff#
8ee
=243
8dd
8cc#
8dd
8ee
8ff#
8ee
=244
4.r
4.ccc#
=245
4.ddd
4.r
==
*-
